assets/svg/icon_profile_violent_speech.svg

<svg width="20" height="20" viewBox="0 0 20 20" fill="none" xmlns="http://www.w3.org/2000/svg">
<g id="Frame">
<g id="Group">
<path id="Vector" d="M3.78516 2.51686C4.75816 2.39448 5.75336 2.46668 6.74407 2.72869C8.03323 3.06959 9.09914 3.82118 9.74264 4.84582C9.90849 5.11235 9.91285 5.44237 9.75594 5.7066C9.61488 5.94365 9.56985 6.22466 9.62991 6.49317C9.71832 6.89305 9.74264 7.30594 9.70061 7.72315C9.67414 8.00069 9.74484 8.28471 9.89752 8.52077L10.9899 10.1965C11.0319 10.2598 11.0385 10.3385 11.0075 10.404C10.9766 10.4695 10.9125 10.5153 10.8373 10.5264L10.0081 11.0988L9.6674 13.4037C9.67623 13.5673 9.6446 13.7306 9.57526 13.8795C9.50592 14.0283 9.40094 14.1582 9.26939 14.258C9.00178 14.4634 8.64801 14.5245 8.32745 14.4218L8.07962 14.3453C7.78333 14.2536 7.45823 14.2908 7.18846 14.4458C6.91649 14.601 6.722 14.8632 6.65549 15.1624C6.57368 15.5273 6.55395 15.9032 6.59359 16.2789C6.60254 16.3904 6.59813 16.5018 6.57822 16.6087C6.57606 16.6087 6.57606 16.6111 6.57368 16.6111L3.95559 15.7917M13.0265 10.5503L16.6267 7.93736M13.4468 12.5298H17.0601M12.5777 14.3563L16.1513 17" stroke="#494949" stroke-width="1.2" stroke-linecap="round" stroke-linejoin="round"/>
</g>
</g>
</svg>

<svg xmlns="http://www.w3.org/2000/svg" width="20" height="20" fill="none"><path stroke="#494949" stroke-linecap="round" stroke-linejoin="round" stroke-width="1.2" d="M3.785 2.517a7.8 7.8 0 0 1 2.96.212c1.288.34 2.354 1.092 2.998 2.117.165.266.17.596.013.86a1.08 1.08 0 0 0-.126.787c.088.4.113.813.07 1.23-.026.278.045.562.198.798l1.092 1.675a.21.21 0 0 1 .018.208.22.22 0 0 1-.17.122l-.83.573-.34 2.305a1 1 0 0 1-.399.854 1.03 1.03 0 0 1-.942.164l-.247-.077a1.127 1.127 0 0 0-1.425.817c-.081.365-.101.741-.061 1.117q.014.168-.016.33l-.004.002-2.618-.82m9.07-5.24 3.6-2.614m-3.18 4.593h3.614m-4.482 1.826L16.15 17"/></svg>
